outputs/icons/maps/light_rail_train_sharp.svg

<svg xmlns="http://www.w3.org/2000/svg" width="1200" height="1200" fill="none"><g clip-path="url(#a)"><path fill="#000" d="m650 250 37.5-75H850v-75H350v75h237.5L550 250c-156.5 4.5-300 36.5-300 175v425c0 75 55.5 136.5 127.5 147.5L300 1075v25h100l100-100h200l100 100h100v-25l-77.5-77.5C894.5 986.5 950 925 950 850V425c0-138.5-143.5-170.5-300-175m-50 675c-41.5 0-75-33.5-75-75s33.5-75 75-75 75 33.5 75 75-33.5 75-75 75m250-225H350V450h500z"/></g><defs><clipPath id="a"><path fill="#fff" d="M0 0h1200v1200H0z"/></clipPath></defs></svg>

<svg width="1200" height="1200" viewBox="0 0 1200 1200" fill="none" xmlns="http://www.w3.org/2000/svg"><g clip-path="url(#clip0_124_935)"><path d="M650 250L687.5 175H850V100H350V175H587.5L550 250C393.5 254.5 250 286.5 250 425V850C250 925 305.5 986.5 377.5 997.5L300 1075V1100H400L500 1000H700L800 1100H900V1075L822.5 997.5C894.5 986.5 950 925 950 850V425C950 286.5 806.5 254.5 650 250ZM600 925C558.5 925 525 891.5 525 850C525 808.5 558.5 775 600 775C641.5 775 675 808.5 675 850C675 891.5 641.5 925 600 925ZM850 700H350V450H850V700Z" fill="black"/></g><defs><clipPath id="clip0_124_935"><path width="24" fill="white" d="M0 0H1200V1200H0V0z"/></clipPath></defs></svg>
